Newaita-dark/apps/128/otter-browser.svg

<?xml version="1.0" encoding="UTF-8"?>
<svg xmlns="http://www.w3.org/2000/svg" xmlns:xlink="http://www.w3.org/1999/xlink" width="128pt" height="128pt" viewBox="0 0 128 128" version="1.1">
<defs>
<radialGradient id="radial0" gradientUnits="userSpaceOnUse" cx="450.908936" cy="189.579361" fx="450.908936" fy="189.579361" r="21.166656" gradientTransform="matrix(0.000000696681,-0.31253,-0.562554,-0.000000406154,178.092608,254.381318)">
<stop offset="0" style="stop-color:rgb(0%,0%,0%);stop-opacity:0.313725;"/>
<stop offset="0.222222" style="stop-color:rgb(0%,0%,0%);stop-opacity:0.27451;"/>
<stop offset="1" style="stop-color:rgb(0%,0%,0%);stop-opacity:0;"/>
</radialGradient>
<radialGradient id="radial1" gradientUnits="userSpaceOnUse" cx="450.908936" cy="189.579361" fx="450.908936" fy="189.579361" r="21.166656" gradientTransform="matrix(-0.000000696681,0.31253,0.562554,0.000000406154,-51.080475,-30.109928)">
<stop offset="0" style="stop-color:rgb(0%,0%,0%);stop-opacity:0.313725;"/>
<stop offset="0.222222" style="stop-color:rgb(0%,0%,0%);stop-opacity:0.27451;"/>
<stop offset="1" style="stop-color:rgb(0%,0%,0%);stop-opacity:0;"/>
</radialGradient>
<radialGradient id="radial2" gradientUnits="userSpaceOnUse" cx="450.908936" cy="189.579361" fx="450.908936" fy="189.579361" r="21.166656" gradientTransform="matrix(-0.000000696681,-0.31253,0.562554,-0.000000406154,-51.080475,254.381318)">
<stop offset="0" style="stop-color:rgb(0%,0%,0%);stop-opacity:0.313725;"/>
<stop offset="0.222222" style="stop-color:rgb(0%,0%,0%);stop-opacity:0.27451;"/>
<stop offset="1" style="stop-color:rgb(0%,0%,0%);stop-opacity:0;"/>
</radialGradient>
<radialGradient id="radial3" gradientUnits="userSpaceOnUse" cx="450.908936" cy="189.579361" fx="450.908936" fy="189.579361" r="21.166656" gradientTransform="matrix(0.000000696681,0.31253,-0.562554,0.000000406154,178.0926,-30.10993)">
<stop offset="0" style="stop-color:rgb(0%,0%,0%);stop-opacity:0.313725;"/>
<stop offset="0.222222" style="stop-color:rgb(0%,0%,0%);stop-opacity:0.27451;"/>
<stop offset="1" style="stop-color:rgb(0%,0%,0%);stop-opacity:0;"/>
</radialGradient>
<linearGradient id="linear0" gradientUnits="userSpaceOnUse" x1="255.323059" y1="233.5" x2="255.323044" y2="254.666656" gradientTransform="matrix(0.0534402,0,0,0.250024,49.861545,53.755135)">
<stop offset="0" style="stop-color:rgb(0%,0%,0%);stop-opacity:0.27451;"/>
<stop offset="1" style="stop-color:rgb(0%,0%,0%);stop-opacity:0;"/>
</linearGradient>
<linearGradient id="linear1" gradientUnits="userSpaceOnUse" x1="960" y1="1695.118164" x2="960" y2="175.118118" gradientTransform="matrix(0.0661521,0,0,0.0661521,0,0)">
<stop offset="0" style="stop-color:rgb(11.764706%,53.333333%,89.803922%);stop-opacity:1;"/>
<stop offset="1" style="stop-color:rgb(12.941176%,58.823529%,95.294118%);stop-opacity:1;"/>
</linearGradient>
</defs>
<g id="surface1">
<path style=" stroke:none;fill-rule:nonzero;fill:url(#radial0);" d="M 72.765625 112.136719 L 83.351562 112.136719 L 83.351562 106.84375 L 72.765625 106.84375 Z M 72.765625 112.136719 "/>
<path style=" stroke:none;fill-rule:nonzero;fill:url(#radial1);" d="M 54.246094 112.136719 L 43.660156 112.136719 L 43.660156 117.429688 L 54.246094 117.429688 Z M 54.246094 112.136719 "/>
<path style=" stroke:none;fill-rule:nonzero;fill:url(#radial2);" d="M 54.246094 112.136719 L 43.660156 112.136719 L 43.660156 106.84375 L 54.246094 106.84375 Z M 54.246094 112.136719 "/>
<path style=" stroke:none;fill-rule:nonzero;fill:url(#radial3);" d="M 72.765625 112.136719 L 83.351562 112.136719 L 83.351562 117.429688 L 72.765625 117.429688 Z M 72.765625 112.136719 "/>
<path style=" stroke:none;fill-rule:nonzero;fill:url(#linear0);" d="M 54.246094 110.8125 L 72.765625 110.8125 L 72.765625 117.429688 L 54.246094 117.429688 Z M 54.246094 110.8125 "/>
<path style=" stroke:none;fill-rule:nonzero;fill:url(#linear1);" d="M 63.507812 11.585938 C 40.050781 11.585938 21.167969 34.007812 21.167969 61.859375 C 21.167969 89.710938 40.050781 112.136719 63.507812 112.136719 C 86.960938 112.136719 105.84375 89.710938 105.84375 61.859375 C 105.84375 34.007812 86.960938 11.585938 63.507812 11.585938 Z M 63.507812 22.167969 C 75.234375 22.167969 84.675781 39.871094 84.675781 61.859375 C 84.675781 83.847656 75.234375 101.550781 63.507812 101.550781 C 51.777344 101.550781 42.335938 83.847656 42.335938 61.859375 C 42.335938 39.871094 51.777344 22.167969 63.507812 22.167969 Z M 63.507812 22.167969 "/>
<path style=" stroke:none;fill-rule:nonzero;fill:rgb(0%,0%,0%);fill-opacity:0.196078;" d="M 63.507812 21.0625 C 51.777344 21.0625 42.335938 38.761719 42.335938 60.753906 C 42.335938 60.9375 42.339844 61.121094 42.339844 61.304688 C 42.496094 39.574219 51.878906 22.167969 63.507812 22.167969 C 75.136719 22.167969 84.515625 39.574219 84.671875 61.304688 C 84.675781 61.121094 84.675781 60.9375 84.675781 60.753906 C 84.675781 38.761719 75.234375 21.0625 63.507812 21.0625 Z M 21.171875 61.304688 C 21.171875 61.492188 21.167969 61.675781 21.167969 61.859375 C 21.167969 89.710938 40.050781 112.136719 63.507812 112.136719 C 86.960938 112.136719 105.84375 89.710938 105.84375 61.859375 C 105.84375 61.675781 105.84375 61.492188 105.839844 61.304688 C 105.59375 88.902344 86.804688 111.027344 63.507812 111.027344 C 40.207031 111.027344 21.421875 88.902344 21.171875 61.304688 Z M 21.171875 61.304688 "/>
<path style=" stroke:none;fill-rule:nonzero;fill:rgb(100%,100%,100%);fill-opacity:0.392157;" d="M 63.507812 11.585938 C 40.050781 11.585938 21.167969 34.007812 21.167969 61.859375 C 21.167969 62.082031 21.171875 62.300781 21.171875 62.523438 C 21.46875 34.976562 40.238281 12.90625 63.507812 12.90625 C 86.773438 12.90625 105.542969 34.976562 105.839844 62.523438 C 105.84375 62.300781 105.84375 62.082031 105.84375 61.859375 C 105.84375 34.007812 86.960938 11.585938 63.507812 11.585938 Z M 42.339844 62.523438 C 42.339844 62.742188 42.335938 62.960938 42.335938 63.183594 C 42.335938 85.171875 51.777344 102.875 63.507812 102.875 C 75.234375 102.875 84.675781 85.171875 84.675781 63.183594 C 84.675781 62.960938 84.671875 62.742188 84.671875 62.523438 C 84.484375 84.203125 75.117188 101.550781 63.507812 101.550781 C 51.894531 101.550781 42.527344 84.203125 42.339844 62.523438 Z M 42.339844 62.523438 "/>
<path style=" stroke:none;fill-rule:nonzero;fill:rgb(12.941177%,12.941177%,12.941177%);fill-opacity:1;" d="M 63.507812 11.210938 C 39.8125 11.210938 20.792969 33.839844 20.792969 61.859375 C 20.792969 89.882812 39.8125 112.511719 63.507812 112.511719 C 87.199219 112.511719 106.21875 89.882812 106.21875 61.859375 C 106.21875 33.839844 87.199219 11.210938 63.507812 11.210938 Z M 63.507812 11.960938 C 86.722656 11.960938 105.46875 34.175781 105.46875 61.859375 C 105.46875 89.542969 86.722656 111.761719 63.507812 111.761719 C 40.289062 111.761719 21.542969 89.542969 21.542969 61.859375 C 21.542969 34.175781 40.289062 11.960938 63.507812 11.960938 Z M 63.507812 21.792969 C 57.453125 21.792969 52.058594 26.347656 48.191406 33.59375 C 44.328125 40.835938 41.960938 50.8125 41.960938 61.859375 C 41.960938 72.90625 44.328125 82.882812 48.191406 90.128906 C 52.058594 97.371094 57.453125 101.925781 63.507812 101.925781 C 69.558594 101.925781 74.957031 97.371094 78.820312 90.128906 C 82.683594 82.882812 85.050781 72.90625 85.050781 61.859375 C 85.050781 50.8125 82.683594 40.835938 78.820312 33.59375 C 74.957031 26.347656 69.558594 21.792969 63.507812 21.792969 Z M 63.507812 22.542969 C 69.179688 22.542969 74.367188 26.839844 78.15625 33.945312 C 81.945312 41.050781 84.300781 50.917969 84.300781 61.859375 C 84.300781 72.800781 81.945312 82.671875 78.15625 89.773438 C 74.367188 96.878906 69.179688 101.175781 63.507812 101.175781 C 57.832031 101.175781 52.644531 96.878906 48.855469 89.773438 C 45.066406 82.671875 42.710938 72.800781 42.710938 61.859375 C 42.710938 50.917969 45.066406 41.050781 48.855469 33.945312 C 52.644531 26.839844 57.832031 22.542969 63.507812 22.542969 Z M 63.507812 22.542969 "/>
</g>
</svg>

<svg xmlns="http://www.w3.org/2000/svg" width="128pt" height="128pt" viewBox="0 0 128 128"><defs><radialGradient id="a" gradientUnits="userSpaceOnUse" cx="450.909" cy="189.579" fx="450.909" fy="189.579" r="21.167" gradientTransform="matrix(0 -.31253 -.56255 0 178.093 254.381)"><stop offset="0" stop-opacity=".314"/><stop offset=".222" stop-opacity=".275"/><stop offset="1" stop-opacity="0"/></radialGradient><radialGradient id="b" gradientUnits="userSpaceOnUse" cx="450.909" cy="189.579" fx="450.909" fy="189.579" r="21.167" gradientTransform="matrix(0 .31253 .56255 0 -51.08 -30.11)"><stop offset="0" stop-opacity=".314"/><stop offset=".222" stop-opacity=".275"/><stop offset="1" stop-opacity="0"/></radialGradient><radialGradient id="c" gradientUnits="userSpaceOnUse" cx="450.909" cy="189.579" fx="450.909" fy="189.579" r="21.167" gradientTransform="matrix(0 -.31253 .56255 0 -51.08 254.381)"><stop offset="0" stop-opacity=".314"/><stop offset=".222" stop-opacity=".275"/><stop offset="1" stop-opacity="0"/></radialGradient><radialGradient id="d" gradientUnits="userSpaceOnUse" cx="450.909" cy="189.579" fx="450.909" fy="189.579" r="21.167" gradientTransform="matrix(0 .31253 -.56255 0 178.093 -30.11)"><stop offset="0" stop-opacity=".314"/><stop offset=".222" stop-opacity=".275"/><stop offset="1" stop-opacity="0"/></radialGradient><linearGradient id="e" gradientUnits="userSpaceOnUse" x1="255.323" y1="233.5" x2="255.323" y2="254.667" gradientTransform="matrix(.05344 0 0 .25002 49.862 53.755)"><stop offset="0" stop-opacity=".275"/><stop offset="1" stop-opacity="0"/></linearGradient><linearGradient id="f" gradientUnits="userSpaceOnUse" x1="960" y1="1695.118" x2="960" y2="175.118" gradientTransform="scale(.06615)"><stop offset="0" stop-color="#1e88e5"/><stop offset="1" stop-color="#2196f3"/></linearGradient></defs><path d="M72.766 112.137h10.586v-5.293H72.766zm0 0" fill="url(#a)"/><path d="M54.246 112.137H43.66v5.293h10.586zm0 0" fill="url(#b)"/><path d="M54.246 112.137H43.66v-5.293h10.586zm0 0" fill="url(#c)"/><path d="M72.766 112.137h10.586v5.293H72.766zm0 0" fill="url(#d)"/><path d="M54.246 110.813h18.52v6.617h-18.52zm0 0" fill="url(#e)"/><path d="M63.508 11.586c-23.457 0-42.34 22.422-42.34 50.273 0 27.852 18.883 50.278 42.34 50.278 23.453 0 42.336-22.426 42.336-50.278 0-27.851-18.883-50.273-42.336-50.273zm0 10.582c11.726 0 21.168 17.703 21.168 39.691 0 21.989-9.442 39.692-21.168 39.692-11.73 0-21.172-17.703-21.172-39.692 0-21.988 9.441-39.691 21.172-39.691zm0 0" fill="url(#f)"/><path d="M63.508 21.063c-11.73 0-21.172 17.699-21.172 39.69 0 .184.004.368.004.552.156-21.73 9.539-39.137 21.168-39.137s21.008 17.406 21.164 39.137c.004-.184.004-.367.004-.551 0-21.992-9.442-39.691-21.168-39.691zM21.172 61.304c0 .187-.004.37-.004.554 0 27.852 18.883 50.278 42.34 50.278 23.453 0 42.336-22.426 42.336-50.278 0-.183 0-.367-.004-.554-.246 27.597-19.035 49.722-42.332 49.722-23.301 0-42.086-22.125-42.336-49.722zm0 0" fill-opacity=".196"/><path d="M63.508 11.586c-23.457 0-42.34 22.422-42.34 50.273 0 .223.004.442.004.664.297-27.546 19.066-49.617 42.336-49.617 23.265 0 42.035 22.07 42.332 49.617.004-.222.004-.441.004-.664 0-27.851-18.883-50.273-42.336-50.273zM42.34 62.523c0 .22-.004.438-.004.66 0 21.989 9.441 39.692 21.172 39.692 11.726 0 21.168-17.703 21.168-39.691 0-.223-.004-.442-.004-.66-.188 21.68-9.555 39.027-21.164 39.027-11.613 0-20.98-17.348-21.168-39.028zm0 0" fill="#fff" fill-opacity=".392"/><path d="M63.508 11.21c-23.696 0-42.715 22.63-42.715 50.65 0 28.023 19.02 50.652 42.715 50.652 23.691 0 42.71-22.63 42.71-50.653 0-28.02-19.019-50.648-42.71-50.648zm0 .75c23.215 0 41.96 22.216 41.96 49.9 0 27.683-18.745 49.902-41.96 49.902-23.219 0-41.965-22.219-41.965-49.903 0-27.683 18.746-49.898 41.965-49.898zm0 9.833c-6.055 0-11.45 4.555-15.317 11.8-3.863 7.243-6.23 17.22-6.23 28.266 0 11.047 2.367 21.024 6.23 28.27 3.868 7.242 9.262 11.797 15.317 11.797 6.05 0 11.449-4.555 15.312-11.797 3.864-7.246 6.23-17.223 6.23-28.27s-2.366-21.023-6.23-28.265c-3.863-7.246-9.261-11.801-15.312-11.801zm0 .75c5.672 0 10.86 4.297 14.648 11.402 3.79 7.106 6.145 16.973 6.145 27.914 0 10.942-2.356 20.813-6.145 27.914-3.789 7.106-8.976 11.403-14.648 11.403-5.676 0-10.863-4.297-14.653-11.403-3.789-7.101-6.144-16.972-6.144-27.914 0-10.941 2.355-20.808 6.144-27.914 3.79-7.105 8.977-11.402 14.653-11.402zm0 0" fill="#212121"/></svg>
